img/work-icon.svg

<svg width="88" height="43" viewBox="0 0 88 43" fill="none" xmlns="http://www.w3.org/2000/svg">
<rect x="1" y="2" width="41" height="40" rx="20" stroke="#18CFAB"/>
<path fill-rule="evenodd" clip-rule="evenodd" d="M26.9131 17.7282L25.0948 15.8913C24.2902 15.0809 22.983 15.0759 22.1768 15.8826L20.1592 17.8926C19.3516 18.6989 19.3482 20.0103 20.1505 20.8207L21.3035 19.689C21.1868 19.3284 21.3304 18.9153 21.6159 18.6295L22.8995 17.3519C23.3061 16.9462 23.9584 16.9491 24.3595 17.3543L25.4513 18.458C25.8528 18.8628 25.8511 19.5171 25.447 19.9232L24.1634 21.2024C23.8918 21.473 23.4461 21.6217 23.1002 21.5263L21.9709 22.6589C22.7745 23.4718 24.0803 23.4747 24.8889 22.6684L26.9039 20.6592C27.7141 19.8525 27.7167 18.5398 26.9131 17.7282ZM19.5261 25.0918C19.6219 25.4441 19.4686 25.8997 19.1909 26.1777L17.9923 27.3752C17.5807 27.7845 16.916 27.7833 16.5067 27.369L15.393 26.2475C14.9847 25.8349 14.9873 25.1633 15.3982 24.7547L16.598 23.5577C16.8903 23.2661 17.3104 23.1202 17.6771 23.2438L18.8335 22.0715C18.0149 21.2462 16.6825 21.2421 15.8606 22.0632L13.9152 24.0042C13.0923 24.8266 13.0884 26.1629 13.9065 26.9886L15.7582 28.8618C16.576 29.6846 17.9072 29.6912 18.7311 28.8701L20.6765 26.9287C21.4985 26.1054 21.5024 24.7717 20.6855 23.9443L19.5261 25.0918ZM19.2579 24.5631C18.9801 24.8419 18.5343 24.8411 18.2618 24.5581C17.9879 24.2743 17.9901 23.8204 18.2661 23.5399L21.5907 20.1611C21.8668 19.8823 22.3117 19.8831 22.5851 20.164C22.8605 20.4457 22.8588 20.9009 22.5817 21.183L19.2579 24.5631Z" fill="#1FDAB5"/>
<path fill-rule="evenodd" clip-rule="evenodd" d="M66.5973 1.99795C77.8653 1.99795 86.9999 10.9523 86.9999 21.9979C86.9999 33.0432 77.8653 41.9979 66.5973 41.9979C55.3292 41.9979 46.1946 33.0432 46.1946 21.9979C46.1946 10.9523 55.3292 1.99795 66.5973 1.99795Z" fill="#18CFAB"/>
<rect x="60" y="17" width="12" height="11" fill="white"/>
</svg>

<svg width="88" height="43" fill="none" xmlns="http://www.w3.org/2000/svg"><rect x="1" y="2" width="41" height="40" rx="20" stroke="#18CFAB"/><path fill-rule="evenodd" clip-rule="evenodd" d="M26.913 17.728l-1.818-1.837a2.058 2.058 0 00-2.918-.008l-2.018 2.01a2.077 2.077 0 00-.008 2.928l1.152-1.132c-.116-.36.027-.774.313-1.06l1.284-1.277a1.028 1.028 0 011.46.002l1.091 1.104c.402.405.4 1.06-.004 1.465l-1.284 1.28c-.271.27-.717.419-1.063.323l-1.13 1.133c.805.813 2.11.816 2.919.01l2.015-2.01c.81-.806.813-2.12.01-2.93zm-7.387 7.364c.096.352-.057.808-.335 1.086l-1.199 1.197a1.048 1.048 0 01-1.485-.006l-1.114-1.122a1.06 1.06 0 01.005-1.492l1.2-1.197c.292-.292.712-.438 1.08-.314l1.155-1.172a2.098 2.098 0 00-2.972-.009l-1.946 1.941a2.117 2.117 0 00-.008 2.985l1.851 1.873a2.1 2.1 0 002.973.008l1.945-1.941a2.119 2.119 0 00.01-2.985l-1.16 1.148zm-.268-.529a.694.694 0 01-.996-.005.732.732 0 01.004-1.018l3.325-3.379a.694.694 0 01.994.003.73.73 0 01-.003 1.019l-3.324 3.38z" fill="#1FDAB5"/><path fill-rule="evenodd" clip-rule="evenodd" d="M66.597 1.998c11.268 0 20.403 8.954 20.403 20 0 11.045-9.135 20-20.403 20-11.268 0-20.402-8.955-20.402-20 0-11.046 9.134-20 20.402-20z" fill="#18CFAB"/><path fill="#fff" d="M60 17h12v11H60z"/></svg>
